public/socials/instagram.svg

<svg width="32" height="33" viewBox="0 0 32 33" fill="none" xmlns="http://www.w3.org/2000/svg">
<circle cx="16" cy="16.5" r="16" fill="#C23772"/>
<path d="M15.9981 14.0747C14.6626 14.0747 13.5728 15.1646 13.5728 16.5C13.5728 17.8355 14.6626 18.9253 15.9981 18.9253C17.3335 18.9253 18.4233 17.8355 18.4233 16.5C18.4233 15.1646 17.3335 14.0747 15.9981 14.0747ZM23.2719 16.5C23.2719 15.4957 23.281 14.5005 23.2246 13.498C23.1682 12.3336 22.9026 11.3001 22.0511 10.4487C21.1978 9.59536 20.1663 9.33154 19.0019 9.27514C17.9976 9.21874 17.0024 9.22784 15.9999 9.22784C14.9956 9.22784 14.0004 9.21874 12.9979 9.27514C11.8335 9.33154 10.8001 9.59718 9.94864 10.4487C9.09535 11.302 8.83154 12.3336 8.77514 13.498C8.71874 14.5023 8.72784 15.4975 8.72784 16.5C8.72784 17.5025 8.71874 18.4996 8.77514 19.502C8.83154 20.6665 9.09717 21.6999 9.94864 22.5514C10.8019 23.4047 11.8335 23.6685 12.9979 23.7249C14.0022 23.7813 14.9974 23.7722 15.9999 23.7722C17.0042 23.7722 17.9994 23.7813 19.0019 23.7249C20.1663 23.6685 21.1997 23.4029 22.0511 22.5514C22.9044 21.6981 23.1682 20.6665 23.2246 19.502C23.2829 18.4996 23.2719 17.5043 23.2719 16.5ZM15.9981 20.2316C13.9331 20.2316 12.2665 18.5651 12.2665 16.5C12.2665 14.435 13.9331 12.7684 15.9981 12.7684C18.0631 12.7684 19.7296 14.435 19.7296 16.5C19.7296 18.5651 18.0631 20.2316 15.9981 20.2316ZM19.8824 13.4871C19.4003 13.4871 19.011 13.0977 19.011 12.6156C19.011 12.1334 19.4003 11.7441 19.8824 11.7441C20.3646 11.7441 20.7539 12.1334 20.7539 12.6156C20.7541 12.7301 20.7316 12.8435 20.6879 12.9493C20.6441 13.0551 20.5799 13.1512 20.499 13.2321C20.418 13.3131 20.3219 13.3773 20.2161 13.421C20.1103 13.4648 19.9969 13.4872 19.8824 13.4871Z" fill="white"/>
</svg>

<svg fill="none" height="33" viewBox="0 0 32 33" width="32" xmlns="http://www.w3.org/2000/svg"><circle cx="16" cy="16.5" fill="#c23772" r="16"/><path d="m15.9981 14.0747c-1.3355 0-2.4253 1.0899-2.4253 2.4253 0 1.3355 1.0898 2.4253 2.4253 2.4253 1.3354 0 2.4252-1.0898 2.4252-2.4253 0-1.3354-1.0898-2.4253-2.4252-2.4253zm7.2738 2.4253c0-1.0043.0091-1.9995-.0473-3.002-.0564-1.1644-.322-2.1979-1.1735-3.0493-.8533-.85334-1.8848-1.11716-3.0492-1.17356-1.0043-.0564-1.9995-.0473-3.002-.0473-1.0043 0-1.9995-.0091-3.002.0473-1.1644.0564-2.1978.32204-3.04926 1.17356-.85329.8533-1.1171 1.8849-1.1735 3.0493-.0564 1.0043-.0473 1.9995-.0473 3.002s-.0091 1.9996.0473 3.002c.0564 1.1645.32203 2.1979 1.1735 3.0494.85326.8533 1.88486 1.1171 3.04926 1.1735 1.0043.0564 1.9995.0473 3.002.0473 1.0043 0 1.9995.0091 3.002-.0473 1.1644-.0564 2.1978-.322 3.0492-1.1735.8533-.8533 1.1171-1.8849 1.1735-3.0494.0583-1.0024.0473-1.9977.0473-3.002zm-7.2738 3.7316c-2.065 0-3.7316-1.6665-3.7316-3.7316 0-2.065 1.6666-3.7316 3.7316-3.7316s3.7315 1.6666 3.7315 3.7316c0 2.0651-1.6665 3.7316-3.7315 3.7316zm3.8843-6.7445c-.4821 0-.8714-.3894-.8714-.8715 0-.4822.3893-.8715.8714-.8715.4822 0 .8715.3893.8715.8715.0002.1145-.0223.2279-.066.3337-.0438.1058-.108.2019-.1889.2828-.081.081-.1771.1452-.2829.1889-.1058.0438-.2192.0662-.3337.0661z" fill="#fff"/></svg>
